client/media/icons/_05_edit1.svg

<?xml version="1.0" encoding="UTF-8" standalone="no"?><!DOCTYPE svg PUBLIC "-//W3C//DTD SVG 1.1//EN" "http://www.w3.org/Graphics/SVG/1.1/DTD/svg11.dtd"><svg width="100%" height="100%" viewBox="0 0 40 40" version="1.1" xmlns="http://www.w3.org/2000/svg" xmlns:xlink="http://www.w3.org/1999/xlink" xml:space="preserve" xmlns:serif="http://www.serif.com/" style="fill-rule:evenodd;clip-rule:evenodd;stroke-linejoin:round;stroke-miterlimit:2;"><path d="M18.947,38l0,-5.104l11.579,-11.821l5,5.104l-11.579,11.821l-5,0Zm-18.947,-10.693l0,-5.104l18.211,-0l-0,5.104l-18.211,0Zm37.789,-3.438l-5,-5.105l1.527,-1.558c0.456,-0.465 1.035,-0.699 1.737,-0.699c0.702,0 1.281,0.234 1.736,0.699l1.527,1.558c0.456,0.465 0.684,1.057 0.684,1.773c0,0.717 -0.228,1.308 -0.684,1.773l-1.527,1.559Zm-37.789,-6.717l0,-5.051l26.526,0l0,5.051l-26.526,0Zm0,-10.101l0,-5.051l26.526,0l0,5.051l-26.526,-0Z" style="fill-rule:nonzero;"/></svg>

<?xml version="1.0" encoding="UTF-8" standalone="no"?>
<!DOCTYPE svg PUBLIC "-//W3C//DTD SVG 1.1//EN" "http://www.w3.org/Graphics/SVG/1.1/DTD/svg11.dtd">
<svg width="100%" height="100%" viewBox="0 0 40 40" version="1.1" xmlns="http://www.w3.org/2000/svg" xmlns:xlink="http://www.w3.org/1999/xlink" xml:space="preserve" xmlns:serif="http://www.serif.com/" style="fill-rule:evenodd;clip-rule:evenodd;stroke-linejoin:round;stroke-miterlimit:2;">
    <g transform="matrix(1,0,0,1.11111,0,-2.22222)">
        <path d="M18.947,38L18.947,32.896L30.526,21.075L35.526,26.179L23.947,38L18.947,38ZM0,27.307L0,22.203L18.211,22.203L18.211,27.307L0,27.307ZM37.789,23.869L32.789,18.764L34.316,17.206C34.772,16.741 35.351,16.507 36.053,16.507C36.755,16.507 37.334,16.741 37.789,17.206L39.316,18.764C39.772,19.229 40,19.821 40,20.537C40,21.254 39.772,21.845 39.316,22.31L37.789,23.869ZM0,17.152L0,12.101L26.526,12.101L26.526,17.152L0,17.152ZM0,7.051L0,2L26.526,2L26.526,7.051L0,7.051Z" style="fill-rule:nonzero;"/>
    </g>
</svg>
